src/pos-icons/script-text-outline.svg

<svg height="24" viewBox="0 0 24 24" width="24" xmlns="http://www.w3.org/2000/svg"><path d="m15 20a1 1 0 0 0 1-1v-15h-8a1 1 0 0 0 -1 1v11h-2v-11a3 3 0 0 1 3-3h11a3 3 0 0 1 3 3v1h-2v-1a1 1 0 0 0 -1-1 1 1 0 0 0 -1 1v4 10a3 3 0 0 1 -3 3h-10a3 3 0 0 1 -3-3v-1h11a2 2 0 0 0 2 2m-6-14h5v2h-5zm0 4h5v2h-5zm0 4h5v2h-5z"/></svg>

<?xml version="1.0" encoding="UTF-8"?><!DOCTYPE svg PUBLIC "-//W3C//DTD SVG 1.1//EN" "http://www.w3.org/Graphics/SVG/1.1/DTD/svg11.dtd"><svg xmlns="http://www.w3.org/2000/svg" xmlns:xlink="http://www.w3.org/1999/xlink" version="1.1" id="mdi-script-text-outline" width="24" height="24" viewBox="0 0 24 24"><path d="M15,20A1,1 0 0,0 16,19V4H8A1,1 0 0,0 7,5V16H5V5A3,3 0 0,1 8,2H19A3,3 0 0,1 22,5V6H20V5A1,1 0 0,0 19,4A1,1 0 0,0 18,5V9L18,19A3,3 0 0,1 15,22H5A3,3 0 0,1 2,19V18H13A2,2 0 0,0 15,20M9,6H14V8H9V6M9,10H14V12H9V10M9,14H14V16H9V14Z" /></svg>
